assets/button-primary.svg

<svg width="142" height="42" xmlns="http://www.w3.org/2000/svg"><g transform="translate(1 1.21)" fill="none"><path d="M7.307 0h125.386C136.727 0 140 2.387 140 5.33v29.34c0 2.943-3.273 5.33-7.307 5.33H7.307C3.273 40 0 37.613 0 34.67V5.33C0 2.387 3.273 0 7.307 0z" stroke="#0047DD"/><g transform="translate(8.942 12.778)" fill="#0047DD"><path d="M6.957 7h4.817v6.928a14.09 14.09 0 0 1-2.288.555c-.775.12-1.675.185-2.695.185-2.14 0-3.81-.639-5-1.926C.594 11.46 0 9.66 0 7.334c0-1.481.295-2.778.886-3.89A6.065 6.065 0 0 1 3.433.89C4.549.296 5.855 0 7.345 0c1.5 0 2.902.287 4.208.852l-.646 1.463c-1.269-.556-2.492-.833-3.673-.833-1.725 0-3.072.518-4.041 1.555-.96 1.038-1.44 2.473-1.44 4.297 0 1.926.462 3.39 1.384 4.39.932.99 2.307 1.481 4.116 1.481.982 0 1.942-.11 2.879-.333v-4.39H6.957V7.001z"/><path d="M23.0328947 14.4648421L15.1518947 14.4648421 15.1518947 0.2028421 23.0328947 0.2028421 23.0328947 1.6858421 16.7938947 1.6858421 16.7938947 6.2778421 22.6638947 6.2778421 22.6638947 7.7408421 16.7938947 7.7408421 16.7938947 12.9828421 23.0328947 12.9828421z"/><path d="M30.5188947 14.4648421L28.8768947 14.4648421 28.8768947 1.6858421 24.3928947 1.6858421 24.3928947 0.2028421 35.0028947 0.2028421 35.0028947 1.6858421 30.5188947 1.6858421z"/><path d="M50.252 10.668c0 1.26-.457 2.24-1.366 2.945-.9.703-2.122 1.055-3.672 1.055-1.675 0-2.962-.222-3.857-.666v-1.593c.576.25 1.204.444 1.882.592.687.14 1.366.204 2.03.204 1.093 0 1.92-.208 2.473-.63.554-.416.83-1 .83-1.74 0-.491-.101-.894-.295-1.204-.198-.32-.526-.616-.978-.89-.457-.268-1.158-.573-2.104-.907-1.32-.467-2.26-1.028-2.823-1.685-.568-.653-.85-1.5-.85-2.537 0-1.098.411-1.973 1.237-2.63C43.58.329 44.665 0 46.007 0c1.403 0 2.695.269 3.876.796l-.517 1.426c-1.158-.49-2.288-.74-3.396-.74-.876 0-1.56.194-2.048.574-.48.37-.72.898-.72 1.574 0 .495.083.903.258 1.222.185.31.49.593.923.852.43.26 1.08.551 1.956.87 1.486.533 2.51 1.107 3.064 1.723.563.607.849 1.399.849 2.37z"/><path d="M57.4818947 14.4648421L55.8398947 14.4648421 55.8398947 1.6858421 51.3548947 1.6858421 51.3548947 0.2028421 61.9658947 0.2028421 61.9658947 1.6858421 57.4818947 1.6858421z"/><path d="M72.976 14.464l-1.771-4.537h-5.666l-1.735 4.537h-1.66L67.734.148h1.384l5.555 14.316h-1.698zm-2.27-6.019L69.064 4.02a19.385 19.385 0 0 1-.664-2.056c-.148.63-.351 1.315-.61 2.056l-1.66 4.426h4.576zm7.547.093v5.926h-1.642V.204h3.875c1.735 0 3.013.342 3.839 1.018.835.667 1.255 1.676 1.255 3.019 0 1.88-.95 3.148-2.843 3.815l3.84 6.408h-1.939l-3.432-5.926h-2.953zm0-1.427h2.251c1.168 0 2.021-.226 2.566-.685.54-.467.812-1.167.812-2.093 0-.949-.277-1.63-.83-2.037-.554-.417-1.44-.63-2.658-.63h-2.141v5.445z"/><path d="M93.2028947 14.4648421L91.5608947 14.4648421 91.5608947 1.6858421 87.0768947 1.6858421 87.0768947 0.2028421 97.6878947 0.2028421 97.6878947 1.6858421 93.2028947 1.6858421z"/><path d="M107.681895 14.4648421L99.8008947 14.4648421 99.8008947 0.2028421 107.681895 0.2028421 107.681895 1.6858421 101.443895 1.6858421 101.443895 6.2778421 107.312895 6.2778421 107.312895 7.7408421 101.443895 7.7408421 101.443895 12.9828421 107.681895 12.9828421z"/><path d="M122.109 7.204c0 2.348-.637 4.144-1.901 5.39-1.269 1.25-3.096 1.87-5.481 1.87h-3.913V.204h4.337c2.201 0 3.913.62 5.13 1.851 1.219 1.223 1.828 2.94 1.828 5.15zm-1.753.056c0-1.862-.462-3.265-1.385-4.205-.922-.935-2.297-1.407-4.115-1.407h-2.4v11.39h2.013c1.956 0 3.423-.486 4.41-1.463.983-.972 1.477-2.412 1.477-4.315z"/></g></g></svg>

<?xml version="1.0" encoding="UTF-8"?>
<svg width="142px" height="42px" viewBox="0 0 142 42" version="1.1" xmlns="http://www.w3.org/2000/svg" xmlns:xlink="http://www.w3.org/1999/xlink">
    <title>button-primary</title>
    <g id="Page-1" stroke="none" stroke-width="1" fill="none" fill-rule="evenodd">
        <g id="button-primary" transform="translate(1.000000, 1.210526)" fill-rule="nonzero">
            <path d="M7.30745544,0 L132.692544,0 C136.727362,0 140,2.38661227 140,5.32999732 L140,34.6700031 C140,37.6133881 136.727362,40 132.692544,40 L7.30745544,40 C3.27263779,40 0,37.6133881 0,34.6700031 L0,5.32999732 C0,2.38661227 3.27263779,0 7.30745544,0 L7.30745544,0 Z" id="Path" stroke="#0047DD"></path>
            <g id="Get-Started" transform="translate(8.942105, 12.777632)" fill="#0047DD">
                <path d="M6.9574311,7.0008067 L11.7741141,7.0008067 L11.7741141,13.9275309 C11.0220838,14.1775591 10.2608267,14.3627662 9.4857283,14.4831505 C8.7106299,14.6035353 7.8109618,14.668357 6.7913385,14.668357 C4.6505905,14.668357 2.9804374,14.0293939 1.7901082,12.7422091 C0.5951645,11.4596542 5.32907052e-15,9.6585198 5.32907052e-15,7.3341785 C5.32907052e-15,5.8525263 0.2952756,4.5560806 0.8858267,3.4448414 C1.4763779,2.3336022 2.3252952,1.4816522 3.4325787,0.8889913 C4.5490901,0.2963304 5.854761,3.55271368e-15 7.3449803,3.55271368e-15 C8.8444263,3.55271368e-15 10.2469854,0.2870695 11.5526574,0.85195 L10.9067421,2.3150816 C9.6379795,1.759462 8.4153543,1.4816522 7.2342519,1.4816522 C5.5087358,1.4816522 4.1615397,2.0002305 3.1926673,3.037387 C2.2330216,4.0745436 1.7531988,5.5098936 1.7531988,7.3341785 C1.7531988,9.2603264 2.2145669,10.723458 3.1373031,11.7235732 C4.0692673,12.7144287 5.4441437,13.2052254 7.2527066,13.2052254 C8.2354204,13.2052254 9.1950661,13.0941015 10.1316437,12.8718537 L10.1316437,8.482459 L6.9574311,8.482459 L6.9574311,7.0008067 Z" id="Path"></path>
                <polygon id="Path" points="23.0328947 14.4648421 15.1518947 14.4648421 15.1518947 0.2028421 23.0328947 0.2028421 23.0328947 1.6858421 16.7938947 1.6858421 16.7938947 6.2778421 22.6638947 6.2778421 22.6638947 7.7408421 16.7938947 7.7408421 16.7938947 12.9828421 23.0328947 12.9828421"></polygon>
                <polygon id="Path" points="30.5188947 14.4648421 28.8768947 14.4648421 28.8768947 1.6858421 24.3928947 1.6858421 24.3928947 0.2028421 35.0028947 0.2028421 35.0028947 1.6858421 30.5188947 1.6858421"></polygon>
                <path d="M50.2517561,10.667896 C50.2517561,11.9273004 49.7950014,12.908895 48.8861065,13.6126798 C47.9864384,14.3164646 46.7638132,14.668357 45.2136163,14.668357 C43.5388498,14.668357 42.2516325,14.4461092 41.3565789,14.0016135 L41.3565789,12.4088374 C41.9332888,12.6588656 42.5607494,12.853333 43.2389608,13.0014982 C43.926399,13.1404025 44.6046104,13.2052254 45.2689805,13.2052254 C46.3624226,13.2052254 47.1882718,12.9968684 47.7419136,12.5755232 C48.2955553,12.1588091 48.5723762,11.575408 48.5723762,10.8345819 C48.5723762,10.3437852 48.4708758,9.9409607 48.2771006,9.6307394 C48.078712,9.3112585 47.7511403,9.014928 47.2990002,8.7417481 C46.8422455,8.473198 46.1409659,8.1676079 45.1951616,7.8342361 C43.8756482,7.3665899 42.9344584,6.8063393 42.3715888,6.1488567 C41.8041057,5.496004 41.5226714,4.6486838 41.5226714,3.6115273 C41.5226714,2.5141789 41.9332888,1.6390784 42.759138,0.9815946 C43.5803726,0.3287419 44.664588,-3.55271368e-15 46.0071695,-3.55271368e-15 C47.4097285,-3.55271368e-15 48.7015592,0.2685501 49.8826616,0.7963881 L49.3659293,2.2224783 C48.207895,1.7316804 47.0775435,1.4816522 45.97026,1.4816522 C45.09366,1.4816522 44.4108364,1.6761197 43.9217856,2.0557924 C43.4419628,2.4262055 43.2020514,2.9540435 43.2020514,3.6300479 C43.2020514,4.1254757 43.285097,4.53293 43.4604175,4.852411 C43.6449647,5.1626323 43.9494671,5.4450719 44.3831537,5.704361 C44.8122258,5.9636502 45.4627545,6.2553508 46.3393545,6.5748317 C47.8249592,7.1073008 48.849197,7.681441 49.4028387,8.2972524 C49.9657073,8.9038041 50.2517561,9.6955611 50.2517561,10.667896 L50.2517561,10.667896 Z" id="Path"></path>
                <polygon id="Path" points="57.4818947 14.4648421 55.8398947 14.4648421 55.8398947 1.6858421 51.3548947 1.6858421 51.3548947 0.2028421 61.9658947 0.2028421 61.9658947 1.6858421 57.4818947 1.6858421"></polygon>
                <path d="M72.9763442,14.4644909 L71.2046907,9.926931 L65.5390903,9.926931 L63.8043462,14.4644909 L62.143421,14.4644909 L67.7352025,0.1480263 L69.1193068,0.1480263 L74.6741789,14.4644909 L72.9763442,14.4644909 Z M70.7064131,8.4452788 L69.0639427,4.0188427 C68.842486,3.4632232 68.6210293,2.777959 68.3995726,1.9630503 C68.2519348,2.5927525 68.0489328,3.2780166 67.7905667,4.0188427 L66.1296415,8.4452788 L70.7064131,8.4452788 Z M78.2529968,8.5375832 L78.2529968,14.4641921 L76.6105263,14.4641921 L76.6105263,0.2032895 L80.4860184,0.2032895 C82.2207625,0.2032895 83.4987519,0.545921 84.3246011,1.2219254 C85.1596771,1.8886689 85.5795223,2.898045 85.5795223,4.2407918 C85.5795223,6.1206386 84.6291046,7.3893027 82.7374948,8.0560462 L86.5760777,14.4641921 L84.6383314,14.4641921 L81.2057527,8.5375832 L78.2529968,8.5375832 Z M78.2529968,7.1114929 L80.5044731,7.1114929 C81.6717341,7.1114929 82.525266,6.8846152 83.0696798,6.4262288 C83.6094802,5.9585826 83.8816877,5.2594277 83.8816877,4.333395 C83.8816877,3.3842119 83.6048668,2.7035776 83.0512251,2.2961232 C82.4975834,1.879408 81.6117566,1.666421 80.3937448,1.666421 L78.2529968,1.666421 L78.2529968,7.1114929 Z" id="Shape"></path>
                <polygon id="Path" points="93.2028947 14.4648421 91.5608947 14.4648421 91.5608947 1.6858421 87.0768947 1.6858421 87.0768947 0.2028421 97.6878947 0.2028421 97.6878947 1.6858421 93.2028947 1.6858421"></polygon>
                <polygon id="Path" points="107.681895 14.4648421 99.8008947 14.4648421 99.8008947 0.2028421 107.681895 0.2028421 107.681895 1.6858421 101.443895 1.6858421 101.443895 6.2778421 107.312895 6.2778421 107.312895 7.7408421 101.443895 7.7408421 101.443895 12.9828421 107.681895 12.9828421"></polygon>
                <path d="M122.108765,7.2040962 C122.108765,9.5515893 121.472077,11.3480926 120.207929,12.5936062 C118.939166,13.8437496 117.112148,14.4641921 114.726876,14.4641921 L110.814474,14.4641921 L110.814474,0.2032895 L115.151334,0.2032895 C117.35206,0.2032895 119.063736,0.8237319 120.281748,2.0553547 C121.499759,3.2777178 122.108765,4.9955087 122.108765,7.2040962 Z M120.355566,7.2596582 C120.355566,5.398332 119.894198,3.9953934 118.971462,3.05547 C118.048726,2.1201776 116.673848,1.6479004 114.856059,1.6479004 L112.456944,1.6479004 L112.456944,13.0381018 L114.468509,13.0381018 C116.42471,13.0381018 117.89186,12.551935 118.879189,11.5749703 C119.861902,10.6026366 120.355566,9.1626555 120.355566,7.2596582 L120.355566,7.2596582 Z" id="Shape"></path>
            </g>
        </g>
    </g>
</svg>
